X: 1
T: Kadrilj fr. Peders\"ore, \"Osterbotten
O: Finland
N: Uppt. av Alfr. Anderssen
Z: 2013 John Chambers <jc:trillian.mit.edu>
P: A2 A2B4AC4 A2B4AC2 A2B4AC A2B4A3
M: 2/4
L: 1/16
K: G
"A"|: "D7"f2 |\
"G"g4 f4 | e4 d4 | (B2d2) b2a2 | "D7"(g2f2) e2f2 |\
"G"g4 f4 | e4 d4 | (B2d2) b2d2 | "Em"e4 !fine!z2 :|
"B"|: "D7"f2 |\
"G"g2gf g2a2 | b2gg g2b2 | "D7"a2ff f2a2 | "G"g2dd d2d2 |\
"G"g2gf g2a2 | b2gg g2b2 | "D7"a2dd e2f2 | "G"g4 z2 :|
"C"|: g2 |\
"B7"f2BB B2f2 | f2BB B2B2 | B2b2 (ba)(gf) | "Em"g2e2 e2g2 |\
"B7"f2BB B2g2 | f2BB B2B2 | B2b2 (ba)(gf) | "Em"e4 z2 :|
